; G-Code generated by Simplify3D(R) Version 5.1.1
; May 2, 2024 at 7:33:59 PM
; Settings Summary
;   processName,Process 1
;   targetModels,DMM_Bearing,DMM_Bearing(2),DMM_Bearing(3),DMM_Bearing(4),DMM_Bearing(5),DMM_Bearing(6)
;   profileName,Creality CR-10 no Skirt
;   profileVersion,2023-08-14 13:51:42
;   app,S3D-Software 5.1.1
;   technology,fff
;   baseProfile,Creality CR-10
;   extruder,Primary Extruder
;   toolheadNumber,0
;   nozzleDiameter,0.40000
;   extrusionMultiplier,0.90000
;   extrusionWidthMode,manual
;   extrusionWidth,0.40000
;   useRetraction,1
;   retractDistance,5.00000
;   extraRestartDistance,0.00000
;   retractVerticalLift,0.00000
;   retractSpeed,1800.00000
;   useCoasting,0
;   coastingDistance,0.20000
;   useWiping,0
;   wipingDistance,5.00000
;   speedMaxFlowRate,1000.00000
;   toolheadOffsetX,0.00000
;   toolheadOffsetY,0.00000
;   filamentDiameter,1.75000
;   filamentPricePerKilogram,46.00000
;   filamentDensity,1.25000
;   primaryExtruder,Primary Extruder
;   layerHeight,0.30000
;   topSolidLayers,3
;   bottomSolidLayers,3
;   outlinePerimeters,2
;   useVaseMode,0
;   useAdaptiveLayerHeights,0
;   minAdaptiveLayerHeight,0.10000
;   maxAdaptiveLayerHeight,0.30000
;   adaptiveSmoothingLevel,5
;   horizontalOuterCompensation,0.00000
;   horizontalInnerCompensation,0.00000
;   firstLayerUnits,percentage
;   firstLayerHeightPercentage,120
;   firstLayerWidthPercentage,150
;   firstLayerSpeedPercentage,50
;   firstLayerHeightAbsolute,0.30000
;   firstLayerWidthAbsolute,0.40000
;   firstLayerSpeedAbsolute,900.00000
;   startPointStrategy,closest
;   alignStartPointsX,0.00000
;   alignStartPointsY,0.00000
;   restrictStartPoints,1
;   perimeterPrintingOrder,inside_out
;   islandPrintingOrder,closest
;   printInfillBeforePerimeters,0
;   useSkirt,0
;   skirtExtruder,Primary Extruder
;   skirtLayers,1
;   skirtOffset,0.00000
;   skirtOutlines,5
;   useRaft,0
;   raftExtruder,Primary Extruder
;   raftBaseLayers,2
;   raftTopLayers,3
;   raftOffset,3.00000
;   raftSeparationDistance,0.14000
;   raftSpeedUnits,percentage
;   raftSpeedPercentage,30
;   raftSpeedAbsolute,600.00000
;   usePrimePillar,0
;   primePillarExtruder,All Extruders
;   primePillarWidth,12.00000
;   primePillarLocation,north_west
;   primePillarSpeedPercentage,100
;   primePillarInfillPercentage,100
;   autoStopPrimePillar,1
;   primePillarLayersAfterAutoStop,0
;   useOozeShield,0
;   oozeShieldExtruder,All Extruders
;   oozeShieldOffset,2.00000
;   oozeShieldOutlines,1
;   oozeShieldSidewallShape,waterfall
;   oozeShieldSidewallAngle,30
;   oozeShieldSpeedPercentage,100
;   autoStopOozeShield,1
;   oozeShieldLayersAfterAutoStop,0
;   sparseInfillExtruder,Primary Extruder
;   sparseInfillPattern,rectilinear
;   sparseInfillRotation,0
;   sparseInfillPercentage,75
;   sparseInfillExtrusionWidthPercentage,100
;   sparseInfillCombinedLayers,1
;   denseInfillLayers,0
;   denseInfillPercentage,50
;   infillOutlineOverlapPercentage,15
;   minInfillLength,5.00000
;   externalInfillPattern,rectilinear
;   externalInfillRotation,0
;   solidInfillThresholdArea,25.00000
;   solidInfillExtraExpansion,0.00000
;   useMonotonic,0
;   useDiaphragm,0
;   diaphragmSolidLayers,3
;   diaphragmSpacingLayers,20
;   topLayerExtraExpansion,1.00000
;   topLayerExtrusionModifier,100
;   overrideFanSpeedForTopLayer,0
;   topLayerFanSpeedPercentage,100
;   useIroning,0
;   ironingOutlineOffsetPercentage,50
;   ironingExtrusionWidthPercentage,25
;   ironingExtrusionModifier,15
;   ironingSpeedModifier,30
;   sparseSupportExtruder,Primary Extruder
;   sparseSupportInfillPattern,aligned
;   sparseSupportInfillRotation,0
;   sparseSupportInfillPercentage,25
;   sparseSupportOutlines,0
;   sparseSupportCombinedLayers,1
;   upperDenseSupportLayers,0
;   lowerDenseSupportLayers,0
;   denseSupportExtruder,Primary Extruder
;   denseSupportInfillPercentage,70
;   denseSupportExtraExpansion,0.00000
;   baseSupportLayers,0
;   supportInflationDistance,0.00000
;   supportHorizontalPartOffset,0.30000
;   supportUpperSeparationLayers,1
;   supportLowerSeparationLayers,1
;   temperatureController,Primary Extruder
;   enableTemperatureController,1
;   temperatureNumber,0
;   temperatureType,extruder
;   stabilizeAtStartup,1
;   temperatureSetpoints,1|210
;   useIdleCooldown,0
;   cooldownTemperature,150
;   cooldownRequiredIdleTime,180
;   cooldownReheatTime,60
;   temperatureController,Heated Bed
;   enableTemperatureController,1
;   temperatureNumber,0
;   temperatureType,platform
;   stabilizeAtStartup,1
;   temperatureSetpoints,1|60
;   useIdleCooldown,0
;   cooldownTemperature,150
;   cooldownRequiredIdleTime,180
;   cooldownReheatTime,60
;   fan,Cooling Fan
;   fanNumber,0
;   fanType,extruder
;   blipFanToFullPower,0
;   fanSetpoints,1|0,2|100
;   increaseFanForQuickLayers,0
;   fanMaxQuickLayerTime,45.00000
;   fanMinQuickLayerTime,15.00000
;   maxQuickLayerFanSpeedPercentage,100
;   defaultPrintSpeed,2400.00000
;   outerPerimeterSpeedPercentage,50
;   innerPerimeterSpeedPercentage,80
;   topLayerSpeedPercentage,50
;   solidInfillSpeedPercentage,80
;   sparseSupportSpeedPercentage,80
;   denseSupportSpeedPercentage,70
;   travelSpeedXY,4800.00000
;   travelSpeedZ,1000.00000
;   reduceSpeedForQuickLayers,1
;   speedMaxQuickLayerTime,15.00000
;   minQuickLayerSpeedPercentage,20
;   reduceSpeedForShortPerimeters,1
;   speedMaxShortPerimeterLength,80.00000
;   minShortPerimeterSpeedPercentage,50
;   reduceSpeedForMaxFlowRate,0
;   accelXY,500.00000
;   accelZ,100.00000
;   accelE,5000.00000
;   jerkXY,1200.00000
;   jerkZ,24.00000
;   jerkE,300.00000
;   exportFileFormat,gcode
;   useStickyCommands,1
;   use5D,1
;   relativeExtrusionDistances,0
;   allowExtruderAxisZeroing,1
;   independentExtruderAxes,0
;   includeM10123,0
;   includeThumbnailImages,0
;   thumbnailImageEncoding,standard
;   thumbnailImageSizes,300|300
;   x3gMachineProfile,r2
;   overrideStepsPerMillimeter,0
;   stepsPerMillimeterX,88.57319
;   stepsPerMillimeterY,88.57319
;   stepsPerMillimeterZ,400.00000
;   stepsPerMillimeterA,96.27520
;   stepsPerMillimeterB,96.27520
;   xyzFileFormatVersion,1
;   makerBotMachineProfile,replicator_5
;   makerBotModelExtruder,mk13
;   makerBotSupportExtruder,mk14_s
;   makerBotModelMaterial,pla
;   makerBotSupportMaterial,pva
;   globalOffsetX,0.00000
;   globalOffsetY,0.00000
;   globalOffsetZ,0.00000
;   applyToolheadOffsets,0
;   buildVolumeShape,rectangular
;   buildVolumeX,300.00000
;   buildVolumeY,300.00000
;   buildVolumeZ,400.00000
;   buildVolumeDiameter,200.00000
;   originOffsetX,0.00000
;   originOffsetY,0.00000
;   originOffsetZ,0.00000
;   homingDirectionX,min
;   homingDirectionY,min
;   homingDirectionZ,min
;   mirrorVisualX,0
;   mirrorVisualY,1
;   mirrorVisualZ,0
;   machineBackgroundModel,Creality_CR10.stl
;   startingScript,G28 ; home all axes|G29 ; bed level|G1 Z5 F3000 ; lift|G1 X5 Y10 F1500 ; move to prime|G1 Z0.2 F3000 ; get ready to prime|G92 E0 ; reset extrusion distance|G1 Y80 E10 F600 ; prime nozzle|G1 Y100 F5000 ; quick wipe
;   preLayerChangeScript,
;   postLayerChangeScript,
;   preRetractionScript,
;   postRetractionScript,
;   preToolChangeScript,
;   postToolChangeScript,
;   processChangeScript,
;   endingScript,G28 X0 ; home x axis|M106 S0 ; turn off cooling fan|M104 S0 ; turn off extruder|M140 S0 ; turn off bed|M84 ; disable motors
;   postProcessingScript,
;   useBridging,1
;   bridgingThresholdArea,50.00000
;   bridgingInfillExtraExpansion,0.00000
;   bridgingExtrusionModifier,100
;   bridgingSpeedModifier,100
;   overrideFanSpeedForBridging,0
;   bridgingFanSpeedPercentage,100
;   useFixedBridgingAngle,0
;   fixedBridgingAngle,0
;   applyBridgingToPerimeters,0
;   bridgingPerimeterExtraOverlap,0.00000
;   minBridgingPerimeterLength,10.00000
;   useToolChangeRetraction,1
;   toolChangeRetractDistance,12.00000
;   toolChangeExtraRestartDistance,-0.50000
;   toolChangeRetractSpeed,600.00000
;   toolChangePrimeOnFirstUse,0
;   toolChangeRetractAtEnd,0
;   externalThinWallType,perimeters_only
;   internalThinWallType,gap_fill
;   thinWallAllowedOverlapPercentage,10
;   singleExtrusionMinLength,1.00000
;   singleExtrusionMinWidthPercentage,50
;   singleExtrusionMaxWidthPercentage,200
;   singleExtrusionEndpointExtensionDistance,0.20000
;   onlyRetractWhenCrossingOutlines,1
;   retractBetweenLayers,1
;   retractOnTopLayers,0
;   useRetractionMinTravel,0
;   retractionMinTravel,3.00000
;   useRetractionMinExtrusion,0
;   retractionMinExtrusion,3.00000
;   onlyVerticalLiftOnTopLayers,0
;   retractWhileWiping,0
;   wipingMode,outer_perimeter
;   avoidCrossingOutlines,0
;   maxMovementDetourFactor,3.00000
;   openLoopSlicingBehavior,heal
;   openLoopThickenWidth,0.50000
;   slicingRegionRepairMode,positive
G90
M82
M106 S0 P0
M140 S60
M190 S60
M104 S210 T0
M109 S210 T0
G28 ; home all axes
G29 ; bed level
G1 Z5 F3000 ; lift
G1 X5 Y10 F1500 ; move to prime
G1 Z0.2 F3000 ; get ready to prime
G92 E0 ; reset extrusion distance
G1 Y80 E10 F600 ; prime nozzle
G1 Y100 F5000 ; quick wipe
; process Process 1
; layer 1, Z = 0.3600
T0
G92 E0.00000
G1 E-5.00000 F1800
; feature inner perimeter
; tool H0.3600 W0.600
G1 Z0.3600 F1000
G1 X133.556 Y140.359 F4800
G92 E0.00000
G1 E5.00000 F1800
G92 E0.00000
G1 X133.841 Y140.122 E0.02996 F480
G1 X134.148 Y139.915 E0.05989
G1 X134.482 Y139.737 E0.09049
G1 X134.695 Y139.646 E0.10919
G1 X135.055 Y139.528 E0.13977
G1 X135.417 Y139.449 E0.16972
G1 X135.785 Y139.408 E0.19966
G1 X136.155 Y139.405 E0.22961
G1 X136.524 Y139.440 E0.25955
G1 X136.888 Y139.512 E0.28950
G1 X137.242 Y139.622 E0.31945
G1 X137.588 Y139.770 E0.34987
G1 X137.815 Y139.892 E0.37075
G1 X138.111 Y140.084 E0.39924
G1 X138.400 Y140.318 E0.42926
G1 X138.663 Y140.578 E0.45921
G1 X138.898 Y140.865 E0.48915
G1 X139.105 Y141.179 E0.51957
G1 X139.228 Y141.406 E0.54046
G1 X139.368 Y141.730 E0.56894
G1 X139.481 Y142.084 E0.59896
G1 X139.557 Y142.446 E0.62891
G1 X139.596 Y142.823 E0.65949
G1 X139.600 Y143.054 E0.67820
G1 X139.574 Y143.432 E0.70879
G1 X139.511 Y143.797 E0.73872
G1 X139.410 Y144.153 E0.76868
G1 X139.273 Y144.498 E0.79862
G1 X139.102 Y144.826 E0.82857
G1 X138.898 Y145.135 E0.85851
G1 X138.658 Y145.428 E0.88909
G1 X138.496 Y145.594 E0.90781
G1 X138.210 Y145.841 E0.93838
G1 X137.906 Y146.053 E0.96832
G1 X137.576 Y146.237 E0.99890
G1 X137.364 Y146.331 E1.01762
G1 X137.007 Y146.456 E1.04819
G1 X136.646 Y146.541 E1.07814
G1 X136.271 Y146.589 E1.10872
G1 X136.040 Y146.599 E1.12743
G1 X135.662 Y146.583 E1.15801
G1 X135.295 Y146.529 E1.18795
G1 X134.936 Y146.438 E1.21790
G1 X134.588 Y146.310 E1.24785
G1 X134.255 Y146.147 E1.27779
G1 X133.941 Y145.951 E1.30774
G1 X133.642 Y145.719 E1.33832
G1 X133.472 Y145.562 E1.35703
G1 X133.218 Y145.282 E1.38761
G1 X132.998 Y144.983 E1.41756
G1 X132.810 Y144.664 E1.44750
G1 X132.656 Y144.327 E1.47744
G1 X132.537 Y143.976 E1.50740
G1 X132.455 Y143.615 E1.53734
G1 X132.410 Y143.239 E1.56791
G1 X132.402 Y143.008 E1.58664
G1 X132.421 Y142.630 E1.61719
G1 X132.478 Y142.264 E1.64715
G1 X132.573 Y141.906 E1.67710
G1 X132.703 Y141.559 E1.70706
G1 X132.869 Y141.228 E1.73698
G1 X133.068 Y140.915 E1.76694
G1 X133.298 Y140.624 E1.79689
G1 X133.556 Y140.359 E1.82682
; feature outer perimeter
G1 X133.148 Y139.918 F4800
G92 E0.00000
G1 X133.480 Y139.641 E0.03494 F300
G1 X133.839 Y139.400 E0.06989
G1 X134.223 Y139.195 E0.10505
G1 X134.483 Y139.084 E0.12793
G1 X134.897 Y138.948 E0.16309
G1 X135.319 Y138.856 E0.19803
G1 X135.749 Y138.808 E0.23298
G1 X136.181 Y138.804 E0.26793
G1 X136.612 Y138.845 E0.30287
G1 X137.036 Y138.930 E0.33782
G1 X137.449 Y139.058 E0.37276
G1 X137.848 Y139.228 E0.40786
G1 X138.122 Y139.376 E0.43297
G1 X138.463 Y139.598 E0.46594
G1 X138.800 Y139.870 E0.50090
G1 X139.107 Y140.174 E0.53585
G1 X139.381 Y140.508 E0.57079
G1 X139.621 Y140.871 E0.60590
G1 X139.768 Y141.144 E0.63100
G1 X139.931 Y141.518 E0.66396
G1 X140.062 Y141.931 E0.69893
G1 X140.151 Y142.354 E0.73389
G1 X140.195 Y142.787 E0.76903
G1 X140.200 Y143.070 E0.79193
G1 X140.170 Y143.504 E0.82708
G1 X140.096 Y143.930 E0.86202
G1 X139.979 Y144.346 E0.89697
G1 X139.820 Y144.748 E0.93192
G1 X139.620 Y145.131 E0.96686
G1 X139.381 Y145.492 E1.00181
G1 X139.106 Y145.828 E1.03696
G1 X138.908 Y146.031 E1.05986
G1 X138.579 Y146.315 E1.09500
G1 X138.224 Y146.563 E1.12995
G1 X137.844 Y146.774 E1.16510
G1 X137.586 Y146.890 E1.18799
G1 X137.175 Y147.032 E1.22315
G1 X136.754 Y147.132 E1.25809
G1 X136.322 Y147.188 E1.29325
G1 X136.040 Y147.200 E1.31614
G1 X135.605 Y147.181 E1.35129
G1 X135.177 Y147.118 E1.38623
G1 X134.758 Y147.012 E1.42118
G1 X134.352 Y146.863 E1.45612
G1 X133.964 Y146.673 E1.49108
G1 X133.597 Y146.444 E1.52602
G1 X133.254 Y146.177 E1.56117
G1 X133.046 Y145.984 E1.58406
G1 X132.753 Y145.663 E1.61922
G1 X132.497 Y145.315 E1.65416
G1 X132.277 Y144.942 E1.68911
G1 X132.097 Y144.549 E1.72405
G1 X131.959 Y144.139 E1.75900
G1 X131.863 Y143.718 E1.79394
G1 X131.811 Y143.286 E1.82911
G1 X131.801 Y143.003 E1.85199
G1 X131.824 Y142.568 E1.88714
G1 X131.890 Y142.141 E1.92208
G1 X132.000 Y141.723 E1.95703
G1 X132.153 Y141.318 E1.99199
G1 X132.346 Y140.932 E2.02692
G1 X132.578 Y140.567 E2.06187
G1 X132.847 Y140.228 E2.09682
G1 X133.148 Y139.918 E2.13176
; feature inner perimeter
G1 X133.982 Y140.848 F4800
G92 E0.00000
G1 X133.773 Y141.065 E0.02436 F480
G1 X133.587 Y141.302 E0.04872
G1 X133.427 Y141.557 E0.07307
G1 X133.293 Y141.827 E0.09744
G1 X133.187 Y142.110 E0.12179
G1 X133.111 Y142.401 E0.14616
G1 X133.065 Y142.699 E0.17051
G1 X133.050 Y143.000 E0.19487
G1 X133.065 Y143.301 E0.21923
G1 X133.111 Y143.599 E0.24358
G1 X133.187 Y143.891 E0.26794
G1 X133.293 Y144.173 E0.29229
G1 X133.427 Y144.443 E0.31666
G1 X133.587 Y144.698 E0.34101
G1 X133.773 Y144.935 E0.36538
G1 X133.982 Y145.153 E0.38973
G1 X134.212 Y145.347 E0.41409
G1 X134.471 Y145.525 E0.43949
G1 X134.863 Y145.723 E0.47495
G1 X135.147 Y145.825 E0.49938
G1 X135.439 Y145.897 E0.52370
G1 X135.738 Y145.940 E0.54805
G1 X136.050 Y145.952 E0.57334
G1 X136.477 Y145.913 E0.60801
G1 X136.783 Y145.846 E0.63330
G1 X137.069 Y145.751 E0.65765
G1 X137.344 Y145.628 E0.68201
G1 X137.605 Y145.477 E0.70637
G1 X137.849 Y145.301 E0.73073
G1 X138.074 Y145.100 E0.75509
G1 X138.278 Y144.878 E0.77945
G1 X138.457 Y144.636 E0.80380
G1 X138.611 Y144.377 E0.82817
G1 X138.738 Y144.103 E0.85252
G1 X138.836 Y143.818 E0.87688
G1 X138.905 Y143.525 E0.90123
G1 X138.944 Y143.226 E0.92560
G1 X138.951 Y142.913 E0.95089
G1 X138.908 Y142.487 E0.98555
G1 X138.836 Y142.182 E1.01084
G1 X138.738 Y141.897 E1.03520
G1 X138.611 Y141.624 E1.05955
G1 X138.457 Y141.364 E1.08392
G1 X138.278 Y141.123 E1.10828
G1 X138.067 Y140.892 E1.13356
G1 X137.739 Y140.614 E1.16823
G1 X137.477 Y140.444 E1.19352
G1 X137.208 Y140.307 E1.21788
G1 X136.927 Y140.198 E1.24224
G1 X136.637 Y140.118 E1.26660
G1 X136.340 Y140.068 E1.29095
G1 X136.027 Y140.048 E1.31625
G1 X135.599 Y140.076 E1.35092
G1 X135.292 Y140.135 E1.37620
G1 X135.003 Y140.223 E1.40057
G1 X134.725 Y140.339 E1.42492
G1 X134.461 Y140.483 E1.44928
G1 X134.212 Y140.653 E1.47364
G1 X133.982 Y140.848 E1.49799
; feature outer perimeter
G1 X134.393 Y141.286 F4800
G92 E0.00000
G1 X134.226 Y141.459 E0.01940 F300
G1 X134.079 Y141.648 E0.03880
G1 X133.951 Y141.851 E0.05820
G1 X133.844 Y142.066 E0.07760
G1 X133.760 Y142.291 E0.09700
G1 X133.699 Y142.523 E0.11640
G1 X133.663 Y142.760 E0.13580
G1 X133.651 Y143.000 E0.15520
G1 X133.663 Y143.240 E0.17459
G1 X133.699 Y143.477 E0.19399
G1 X133.760 Y143.709 E0.21339
G1 X133.844 Y143.934 E0.23279
G1 X133.951 Y144.149 E0.25219
