; G-Code generated by Simplify3D(R) Version 5.1.1
; May 2, 2024 at 7:14:06 PM
; Settings Summary
;   processName,Process 1
;   targetModels,Dshaft
;   profileName,Creality CR-10 no Skirt
;   profileVersion,2023-08-14 13:51:42
;   app,S3D-Software 5.1.1
;   technology,fff
;   baseProfile,Creality CR-10
;   extruder,Primary Extruder
;   toolheadNumber,0
;   nozzleDiameter,0.40000
;   extrusionMultiplier,0.90000
;   extrusionWidthMode,manual
;   extrusionWidth,0.40000
;   useRetraction,1
;   retractDistance,5.00000
;   extraRestartDistance,0.00000
;   retractVerticalLift,0.00000
;   retractSpeed,1800.00000
;   useCoasting,0
;   coastingDistance,0.20000
;   useWiping,0
;   wipingDistance,5.00000
;   speedMaxFlowRate,1000.00000
;   toolheadOffsetX,0.00000
;   toolheadOffsetY,0.00000
;   filamentDiameter,1.75000
;   filamentPricePerKilogram,46.00000
;   filamentDensity,1.25000
;   primaryExtruder,Primary Extruder
;   layerHeight,0.30000
;   topSolidLayers,3
;   bottomSolidLayers,3
;   outlinePerimeters,2
;   useVaseMode,0
;   useAdaptiveLayerHeights,0
;   minAdaptiveLayerHeight,0.10000
;   maxAdaptiveLayerHeight,0.30000
;   adaptiveSmoothingLevel,5
;   horizontalOuterCompensation,0.00000
;   horizontalInnerCompensation,0.00000
;   firstLayerUnits,percentage
;   firstLayerHeightPercentage,120
;   firstLayerWidthPercentage,150
;   firstLayerSpeedPercentage,50
;   firstLayerHeightAbsolute,0.30000
;   firstLayerWidthAbsolute,0.40000
;   firstLayerSpeedAbsolute,900.00000
;   startPointStrategy,closest
;   alignStartPointsX,0.00000
;   alignStartPointsY,0.00000
;   restrictStartPoints,1
;   perimeterPrintingOrder,inside_out
;   islandPrintingOrder,closest
;   printInfillBeforePerimeters,0
;   useSkirt,0
;   skirtExtruder,Primary Extruder
;   skirtLayers,1
;   skirtOffset,0.00000
;   skirtOutlines,5
;   useRaft,0
;   raftExtruder,Primary Extruder
;   raftBaseLayers,2
;   raftTopLayers,3
;   raftOffset,3.00000
;   raftSeparationDistance,0.14000
;   raftSpeedUnits,percentage
;   raftSpeedPercentage,30
;   raftSpeedAbsolute,600.00000
;   usePrimePillar,0
;   primePillarExtruder,All Extruders
;   primePillarWidth,12.00000
;   primePillarLocation,north_west
;   primePillarSpeedPercentage,100
;   primePillarInfillPercentage,100
;   autoStopPrimePillar,1
;   primePillarLayersAfterAutoStop,0
;   useOozeShield,0
;   oozeShieldExtruder,All Extruders
;   oozeShieldOffset,2.00000
;   oozeShieldOutlines,1
;   oozeShieldSidewallShape,waterfall
;   oozeShieldSidewallAngle,30
;   oozeShieldSpeedPercentage,100
;   autoStopOozeShield,1
;   oozeShieldLayersAfterAutoStop,0
;   sparseInfillExtruder,Primary Extruder
;   sparseInfillPattern,rectilinear
;   sparseInfillRotation,0
;   sparseInfillPercentage,50
;   sparseInfillExtrusionWidthPercentage,100
;   sparseInfillCombinedLayers,1
;   denseInfillLayers,0
;   denseInfillPercentage,50
;   infillOutlineOverlapPercentage,15
;   minInfillLength,5.00000
;   externalInfillPattern,rectilinear
;   externalInfillRotation,0
;   solidInfillThresholdArea,25.00000
;   solidInfillExtraExpansion,0.00000
;   useMonotonic,0
;   useDiaphragm,0
;   diaphragmSolidLayers,3
;   diaphragmSpacingLayers,20
;   topLayerExtraExpansion,1.00000
;   topLayerExtrusionModifier,100
;   overrideFanSpeedForTopLayer,0
;   topLayerFanSpeedPercentage,100
;   useIroning,0
;   ironingOutlineOffsetPercentage,50
;   ironingExtrusionWidthPercentage,25
;   ironingExtrusionModifier,15
;   ironingSpeedModifier,30
;   sparseSupportExtruder,Primary Extruder
;   sparseSupportInfillPattern,aligned
;   sparseSupportInfillRotation,0
;   sparseSupportInfillPercentage,25
;   sparseSupportOutlines,0
;   sparseSupportCombinedLayers,1
;   upperDenseSupportLayers,0
;   lowerDenseSupportLayers,0
;   denseSupportExtruder,Primary Extruder
;   denseSupportInfillPercentage,70
;   denseSupportExtraExpansion,0.00000
;   baseSupportLayers,0
;   supportInflationDistance,0.00000
;   supportHorizontalPartOffset,0.30000
;   supportUpperSeparationLayers,1
;   supportLowerSeparationLayers,1
;   temperatureController,Primary Extruder
;   enableTemperatureController,1
;   temperatureNumber,0
;   temperatureType,extruder
;   stabilizeAtStartup,1
;   temperatureSetpoints,1|210
;   useIdleCooldown,0
;   cooldownTemperature,150
;   cooldownRequiredIdleTime,180
;   cooldownReheatTime,60
;   temperatureController,Heated Bed
;   enableTemperatureController,1
;   temperatureNumber,0
;   temperatureType,platform
;   stabilizeAtStartup,1
;   temperatureSetpoints,1|60
;   useIdleCooldown,0
;   cooldownTemperature,150
;   cooldownRequiredIdleTime,180
;   cooldownReheatTime,60
;   fan,Cooling Fan
;   fanNumber,0
;   fanType,extruder
;   blipFanToFullPower,0
;   fanSetpoints,1|0,2|100
;   increaseFanForQuickLayers,0
;   fanMaxQuickLayerTime,45.00000
;   fanMinQuickLayerTime,15.00000
;   maxQuickLayerFanSpeedPercentage,100
;   defaultPrintSpeed,2400.00000
;   outerPerimeterSpeedPercentage,50
;   innerPerimeterSpeedPercentage,80
;   topLayerSpeedPercentage,50
;   solidInfillSpeedPercentage,80
;   sparseSupportSpeedPercentage,80
;   denseSupportSpeedPercentage,70
;   travelSpeedXY,4800.00000
;   travelSpeedZ,1000.00000
;   reduceSpeedForQuickLayers,1
;   speedMaxQuickLayerTime,15.00000
;   minQuickLayerSpeedPercentage,20
;   reduceSpeedForShortPerimeters,1
;   speedMaxShortPerimeterLength,80.00000
;   minShortPerimeterSpeedPercentage,50
;   reduceSpeedForMaxFlowRate,0
;   accelXY,500.00000
;   accelZ,100.00000
;   accelE,5000.00000
;   jerkXY,1200.00000
;   jerkZ,24.00000
;   jerkE,300.00000
;   exportFileFormat,gcode
;   useStickyCommands,1
;   use5D,1
;   relativeExtrusionDistances,0
;   allowExtruderAxisZeroing,1
;   independentExtruderAxes,0
;   includeM10123,0
;   includeThumbnailImages,0
;   thumbnailImageEncoding,standard
;   thumbnailImageSizes,300|300
;   x3gMachineProfile,r2
;   overrideStepsPerMillimeter,0
;   stepsPerMillimeterX,88.57319
;   stepsPerMillimeterY,88.57319
;   stepsPerMillimeterZ,400.00000
;   stepsPerMillimeterA,96.27520
;   stepsPerMillimeterB,96.27520
;   xyzFileFormatVersion,1
;   makerBotMachineProfile,replicator_5
;   makerBotModelExtruder,mk13
;   makerBotSupportExtruder,mk14_s
;   makerBotModelMaterial,pla
;   makerBotSupportMaterial,pva
;   globalOffsetX,0.00000
;   globalOffsetY,0.00000
;   globalOffsetZ,0.00000
;   applyToolheadOffsets,0
;   buildVolumeShape,rectangular
;   buildVolumeX,300.00000
;   buildVolumeY,300.00000
;   buildVolumeZ,400.00000
;   buildVolumeDiameter,200.00000
;   originOffsetX,0.00000
;   originOffsetY,0.00000
;   originOffsetZ,0.00000
;   homingDirectionX,min
;   homingDirectionY,min
;   homingDirectionZ,min
;   mirrorVisualX,0
;   mirrorVisualY,1
;   mirrorVisualZ,0
;   machineBackgroundModel,Creality_CR10.stl
;   startingScript,G28 ; home all axes|G29 ; bed level|G1 Z5 F3000 ; lift|G1 X5 Y10 F1500 ; move to prime|G1 Z0.2 F3000 ; get ready to prime|G92 E0 ; reset extrusion distance|G1 Y80 E10 F600 ; prime nozzle|G1 Y100 F5000 ; quick wipe
;   preLayerChangeScript,
;   postLayerChangeScript,
;   preRetractionScript,
;   postRetractionScript,
;   preToolChangeScript,
;   postToolChangeScript,
;   processChangeScript,
;   endingScript,G28 X0 ; home x axis|M106 S0 ; turn off cooling fan|M104 S0 ; turn off extruder|M140 S0 ; turn off bed|M84 ; disable motors
;   postProcessingScript,
;   useBridging,1
;   bridgingThresholdArea,50.00000
;   bridgingInfillExtraExpansion,0.00000
;   bridgingExtrusionModifier,100
;   bridgingSpeedModifier,100
;   overrideFanSpeedForBridging,0
;   bridgingFanSpeedPercentage,100
;   useFixedBridgingAngle,0
;   fixedBridgingAngle,0
;   applyBridgingToPerimeters,0
;   bridgingPerimeterExtraOverlap,0.00000
;   minBridgingPerimeterLength,10.00000
;   useToolChangeRetraction,1
;   toolChangeRetractDistance,12.00000
;   toolChangeExtraRestartDistance,-0.50000
;   toolChangeRetractSpeed,600.00000
;   toolChangePrimeOnFirstUse,0
;   toolChangeRetractAtEnd,0
;   externalThinWallType,perimeters_only
;   internalThinWallType,gap_fill
;   thinWallAllowedOverlapPercentage,10
;   singleExtrusionMinLength,1.00000
;   singleExtrusionMinWidthPercentage,50
;   singleExtrusionMaxWidthPercentage,200
;   singleExtrusionEndpointExtensionDistance,0.20000
;   onlyRetractWhenCrossingOutlines,1
;   retractBetweenLayers,1
;   retractOnTopLayers,0
;   useRetractionMinTravel,0
;   retractionMinTravel,3.00000
;   useRetractionMinExtrusion,0
;   retractionMinExtrusion,3.00000
;   onlyVerticalLiftOnTopLayers,0
;   retractWhileWiping,0
;   wipingMode,outer_perimeter
;   avoidCrossingOutlines,0
;   maxMovementDetourFactor,3.00000
;   openLoopSlicingBehavior,heal
;   openLoopThickenWidth,0.50000
;   slicingRegionRepairMode,positive
G90
M82
M106 S0 P0
M140 S60
M190 S60
M104 S210 T0
M109 S210 T0
G28 ; home all axes
G29 ; bed level
G1 Z5 F3000 ; lift
G1 X5 Y10 F1500 ; move to prime
G1 Z0.2 F3000 ; get ready to prime
G92 E0 ; reset extrusion distance
G1 Y80 E10 F600 ; prime nozzle
G1 Y100 F5000 ; quick wipe
; process Process 1
; layer 1, Z = 0.3600
T0
G92 E0.00000
G1 E-5.00000 F1800
; feature inner perimeter
; tool H0.3600 W0.600
G1 Z0.3600 F1000
G1 X149.039 Y112.800 F4800
G92 E0.00000
G1 E5.00000 F1800
G92 E0.00000
G1 X150.961 Y112.800 E0.15530 F960
G1 X150.961 Y187.200 E6.16847
G1 X149.039 Y187.200 E6.32377
G1 X149.039 Y112.800 E12.33693
; feature outer perimeter
G1 X148.439 Y112.200 F4800
G92 E0.00000
G1 X151.561 Y112.200 E0.25229 F600
G1 X151.561 Y187.800 E6.36244
G1 X148.439 Y187.800 E6.61473
G1 X148.439 Y112.200 E12.72488
; feature solid layer
G1 X150.451 Y113.964 F4800
G92 E0.00000
G1 X149.797 Y113.310 E0.07476 F960
G1 X149.549 Y113.310 E0.09476
G1 X149.549 Y113.911 E0.14334
G1 X150.451 Y114.813 E0.24639
G1 X150.451 Y115.661 E0.31497
G1 X149.549 Y114.760 E0.41801
G1 X149.549 Y115.608 E0.48659
G1 X150.451 Y116.510 E0.58964
G1 X150.451 Y117.358 E0.65822
G1 X149.549 Y116.457 E0.76126
G1 X149.549 Y117.305 E0.82984
G1 X150.451 Y118.207 E0.93288
G1 X150.451 Y119.055 E1.00146
G1 X149.549 Y118.154 E1.10451
G1 X149.549 Y119.002 E1.17309
G1 X150.451 Y119.904 E1.27613
G1 X150.451 Y120.752 E1.34471
G1 X149.549 Y119.851 E1.44775
G1 X149.549 Y120.699 E1.51633
G1 X150.451 Y121.601 E1.61938
G1 X150.451 Y122.449 E1.68796
G1 X149.549 Y121.548 E1.79100
G1 X149.549 Y122.396 E1.85958
G1 X150.451 Y123.298 E1.96262
G1 X150.451 Y124.146 E2.03120
G1 X149.549 Y123.245 E2.13425
G1 X149.549 Y124.093 E2.20283
G1 X150.451 Y124.995 E2.30587
G1 X150.451 Y125.843 E2.37445
G1 X149.549 Y124.942 E2.47749
G1 X149.549 Y125.791 E2.54607
G1 X150.451 Y126.692 E2.64912
G1 X150.451 Y127.541 E2.71770
G1 X149.549 Y126.639 E2.82074
G1 X149.549 Y127.488 E2.88932
G1 X150.451 Y128.389 E2.99237
G1 X150.451 Y129.238 E3.06095
G1 X149.549 Y128.336 E3.16399
G1 X149.549 Y129.185 E3.23257
G1 X150.451 Y130.086 E3.33561
G1 X150.451 Y130.935 E3.40419
G1 X149.549 Y130.033 E3.50724
G1 X149.549 Y130.882 E3.57582
G1 X150.451 Y131.783 E3.67886
G1 X150.451 Y132.632 E3.74744
G1 X149.549 Y131.730 E3.85048
G1 X149.549 Y132.579 E3.91907
G1 X150.451 Y133.480 E4.02211
G1 X150.451 Y134.329 E4.09069
G1 X149.549 Y133.427 E4.19373
G1 X149.549 Y134.276 E4.26231
G1 X150.451 Y135.177 E4.36536
G1 X150.451 Y136.026 E4.43394
G1 X149.549 Y135.124 E4.53698
G1 X149.549 Y135.973 E4.60556
G1 X150.451 Y136.874 E4.70860
G1 X150.451 Y137.723 E4.77718
G1 X149.549 Y136.821 E4.88023
G1 X149.549 Y137.670 E4.94881
G1 X150.451 Y138.571 E5.05185
G1 X150.451 Y139.420 E5.12043
G1 X149.549 Y138.518 E5.22348
G1 X149.549 Y139.367 E5.29205
G1 X150.451 Y140.268 E5.39510
G1 X150.451 Y141.117 E5.46368
G1 X149.549 Y140.215 E5.56672
G1 X149.549 Y141.064 E5.63530
G1 X150.451 Y141.966 E5.73835
G1 X150.451 Y142.814 E5.80692
G1 X149.549 Y141.913 E5.90997
G1 X149.549 Y142.761 E5.97855
G1 X150.451 Y143.663 E6.08159
G1 X150.451 Y144.511 E6.15017
G1 X149.549 Y143.610 E6.25322
G1 X149.549 Y144.458 E6.32180
G1 X150.451 Y145.360 E6.42484
G1 X150.451 Y146.208 E6.49342
G1 X149.549 Y145.307 E6.59646
G1 X149.549 Y146.155 E6.66505
G1 X150.451 Y147.057 E6.76809
G1 X150.451 Y147.905 E6.83667
G1 X149.549 Y147.004 E6.93971
G1 X149.549 Y147.852 E7.00829
G1 X150.451 Y148.754 E7.11134
G1 X150.451 Y149.602 E7.17992
G1 X149.549 Y148.701 E7.28296
G1 X149.549 Y149.549 E7.35154
G1 X150.451 Y150.451 E7.45458
G1 X150.451 Y151.299 E7.52316
G1 X149.549 Y150.398 E7.62621
G1 X149.549 Y151.246 E7.69479
G1 X150.451 Y152.148 E7.79783
G1 X150.451 Y152.996 E7.86641
G1 X149.549 Y152.095 E7.96945
G1 X149.549 Y152.943 E8.03803
G1 X150.451 Y153.845 E8.14108
G1 X150.451 Y154.693 E8.20966
G1 X149.549 Y153.792 E8.31270
G1 X149.549 Y154.640 E8.38128
G1 X150.451 Y155.542 E8.48432
G1 X150.451 Y156.391 E8.55290
G1 X149.549 Y155.489 E8.65595
G1 X149.549 Y156.338 E8.72453
G1 X150.451 Y157.239 E8.82757
G1 X150.451 Y158.088 E8.89615
G1 X149.549 Y157.186 E8.99920
G1 X149.549 Y158.035 E9.06778
G1 X150.451 Y158.936 E9.17082
G1 X150.451 Y159.785 E9.23940
G1 X149.549 Y158.883 E9.34244
G1 X149.549 Y159.732 E9.41102
G1 X150.451 Y160.633 E9.51407
G1 X150.451 Y161.482 E9.58265
G1 X149.549 Y160.580 E9.68569
G1 X149.549 Y161.429 E9.75427
G1 X150.451 Y162.330 E9.85731
G1 X150.451 Y163.179 E9.92589
G1 X149.549 Y162.277 E10.02894
G1 X149.549 Y163.126 E10.09752
G1 X150.451 Y164.027 E10.20056
G1 X150.451 Y164.876 E10.26914
G1 X149.549 Y163.974 E10.37218
G1 X149.549 Y164.823 E10.44076
G1 X150.451 Y165.724 E10.54381
G1 X150.451 Y166.573 E10.61239
G1 X149.549 Y165.671 E10.71543
G1 X149.549 Y166.520 E10.78401
G1 X150.451 Y167.421 E10.88706
G1 X150.451 Y168.270 E10.95564
G1 X149.549 Y167.368 E11.05868
G1 X149.549 Y168.217 E11.12726
G1 X150.451 Y169.118 E11.23031
G1 X150.451 Y169.967 E11.29888
G1 X149.549 Y169.065 E11.40193
G1 X149.549 Y169.914 E11.47051
G1 X150.451 Y170.815 E11.57355
G1 X150.451 Y171.664 E11.64213
G1 X149.549 Y170.762 E11.74517
G1 X149.549 Y171.611 E11.81375
G1 X150.451 Y172.513 E11.91680
G1 X150.451 Y173.361 E11.98538
G1 X149.549 Y172.460 E12.08842
G1 X149.549 Y173.308 E12.15700
G1 X150.451 Y174.210 E12.26005
G1 X150.451 Y175.058 E12.32863
G1 X149.549 Y174.157 E12.43167
G1 X149.549 Y175.005 E12.50025
G1 X150.451 Y175.907 E12.60329
G1 X150.451 Y176.755 E12.67187
G1 X149.549 Y175.854 E12.77492
G1 X149.549 Y176.702 E12.84350
G1 X150.451 Y177.604 E12.94654
G1 X150.451 Y178.452 E13.01512
G1 X149.549 Y177.551 E13.11816
G1 X149.549 Y178.399 E13.18674
G1 X150.451 Y179.301 E13.28979
G1 X150.451 Y180.149 E13.35837
G1 X149.549 Y179.248 E13.46141
G1 X149.549 Y180.096 E13.52999
G1 X150.451 Y180.998 E13.63303
G1 X150.451 Y181.846 E13.70161
G1 X149.549 Y180.945 E13.80466
G1 X149.549 Y181.793 E13.87324
G1 X150.451 Y182.695 E13.97628
G1 X150.451 Y183.543 E14.04486
G1 X149.549 Y182.642 E14.14790
G1 X149.549 Y183.490 E14.21648
G1 X150.451 Y184.392 E14.31953
G1 X150.451 Y185.240 E14.38811
G1 X149.549 Y184.339 E14.49115
G1 X149.549 Y185.187 E14.55973
G1 X150.451 Y186.089 E14.66278
G1 X150.451 Y186.690 E14.71135
G1 X150.203 Y186.690 E14.73136
G1 X149.549 Y186.036 E14.80611
G92 E0.00000
G1 E-5.00000 F1800
; layer 2, Z = 0.6600
M106 S255 P0
; feature inner perimeter
; tool H0.3000 W0.400
G1 Z0.6600 F1000
G1 X148.361 Y187.500 F4800
G92 E0.00000
G1 E5.00000 F1800
G92 E0.00000
G1 X148.361 Y112.500 E3.36759 F1920
G1 X151.639 Y112.500 E3.51479
G1 X151.639 Y187.500 E6.88238
G1 X148.361 Y187.500 E7.02959
; feature outer perimeter
G1 X147.961 Y187.900 F4800
G92 E0.00000
G1 X147.961 Y112.100 E3.40351 F1200
G1 X152.039 Y112.100 E3.58664
G1 X152.039 Y187.900 E6.99015
G1 X147.961 Y187.900 E7.17327
; feature solid layer
G1 X150.741 Y187.160 F4800
G92 E0.00000
G1 X151.299 Y186.602 E0.03544 F1920
